icons/open-door.svg

<svg width="24" height="24" viewBox="0 0 24 24" fill="none" xmlns="http://www.w3.org/2000/svg">
<path fill-rule="evenodd" clip-rule="evenodd" d="M5.999 2H17.99C19.323 2 19.99 2.667 19.994 4V19.996C19.991 21.326 19.323 21.994 17.99 22C15.992 22.009 8.008 22.009 5.994 22C4.652 21.994 3.987 21.326 3.999 19.996V4C4 2.667 4.666 2 6 2H5.999ZM13.73 15.754C13.558 16.065 13.275 16.331 12.882 16.551L6 20.005H18V4.005H14.028L13.985 14.771C13.9874 15.1153 13.8994 15.4542 13.73 15.754ZM10.995 10C11.2602 10 11.5146 9.89464 11.7021 9.70711C11.8896 9.51957 11.995 9.26522 11.995 9C11.995 8.73478 11.8896 8.48043 11.7021 8.29289C11.5146 8.10536 11.2602 8 10.995 8C10.7298 8 10.4754 8.10536 10.2879 8.29289C10.1004 8.48043 9.995 8.73478 9.995 9C9.995 9.26522 10.1004 9.51957 10.2879 9.70711C10.4754 9.89464 10.7298 10 10.995 10Z" fill="#3A3A47"/>
</svg>

<svg xmlns="http://www.w3.org/2000/svg" width="24" height="24" viewBox="0 0 24 24">
    <path fill="#3A3A47" fill-rule="evenodd" d="M17.991 2c1.333 0 2 .667 2.004 2v15.996c-.003 1.33-.671 1.998-2.004 2.004-1.998.009-9.982.009-11.996 0-1.342-.006-2.007-.674-1.995-2.004V4C4 2.667 4.666 2 6 2H17.99zm.01 2.005h-3.973l-.043 10.766a1.97 1.97 0 0 1-.255.983c-.148.267-.376.5-.686.7l-.162.097L6 20.005h12v-16zM10.994 8a1 1 0 1 0 0 2 1 1 0 0 0 0-2z"/>
</svg>
